X:1
T:St. Dunstan’s
T:St. Dunstan’s
T:Charles Winfred Douglas, 1917
T:Public Domain Courtesy of the Cyber Hymnal™
C:Charles Winfred Douglas, 1917
Z:Public Domain
Z:Courtesy of the Cyber Hymnal™
%%score ( 1 2 ) ( 3 4 )
L:1/8
Q:1/4=110
M:none
K:G
V:1 treble 
V:2 treble 
V:3 bass 
V:4 bass 
V:1
 [DG]2 [DG]2 D2 | [B,G]3 [DA] [DB]2 | [Ec]2 [DB]2 [B,G]2 | [DB]2 [DA]4 | [DG]2 [DG]2 D2 | %5
 [DG]3 [FA] [GB]2 | [Gc]2 [GB]2 [EG]2 | [FA]2 G4 | [FA]2 [EA]2 [EB]2 | [Ec]3 [EB] [EA]2 | %10
 [FA]2 [FB]2 [FA]2 | B2 (z [Bd]2) B2 x2 | [Ge]3 [Gd] [Ec]2 [GB]2 | [DA]2 [DG]2 [DF]2 [B,G]2 | %14
 [DA]4 [B,G]4 |] %15
V:2
 x4 D2 | x6 | x6 | x6 | x4 D2 | x6 | x6 | x2 G4 | x6 | x6 | x6 | G3 (c2 A) x B2 | x8 | x8 | x8 |] %15
V:3
 [G,B,]2 [G,B,]2 [F,A,]2 | [E,G,]3 [D,F,] G,2 | [C,G,]2 [D,G,]2 [E,G,]2 | [D,G,]2 [D,F,]4 | %4
 [G,B,]2 [G,B,]2 [A,C]2 | [B,D]3 [A,D] [G,D]2 | [C,E]2 [D,D]2 [E,B,]2 | [D,C]2 [G,B,]4 | %8
 [D,A,]2 [C,A,]2 [E,^G,]2 | A,3 [^G,B,] [A,C]2 | [CD]2 [B,D]2 [CD]2 | %11
 [B,D]2 [A,D]2 [G,D]2 [G,D]2 x | [C,C]3 [G,B,] A,2 [E,B,]2 | [F,D]2 [G,B,]2 [D,A,]2 [E,G,]2 | %14
 [D,F,]4 [G,,G,]4 |] %15
V:4
 x6 | x6 | x6 | x6 | x6 | x6 | x6 | x6 | x6 | A,3 x3 | x6 | x9 | x4 A,2 x2 | x8 | x8 |] %15

